X:165
T: Királyfalvi nagy hegy alatt...
M: 5/8
L: 1/4
K: F
f/f/ g/d | d/c/ c/ d | 
g/f/ d/c | c/B/ G/F | 
B/B/ c/d | c/B/ G/F | 
B/B/ c/d | G/G/ G/G | 

